X:6
M:C
L:1/8
Q:1/4=140
K:D
(AG) | FDFA dfaf | gfed dcBA | GBGB FAFA | EFGA GFED |!
|: (3ABc | dfdf cece | Bcde dcBA | GBGB FAFA | EFGA GFED |!

